X: 1
T: MOLLY BAWN'S -- REEL
B: Ryan's Mammoth Collection of Fiddle Tunes
R: reel
M: 2/4
L: 1/16
Z: Contributed 20010830180103 by John Chambers jmchambers:rcn.net
K: Gmix
uA2 \
|: .A.d(d^c) .d2(=cB) | .A.F.=c.F .dF.c.F | Add^c .d2(de) | fdcA (AG).G2 \
|  .A.d(d^c) .d2(=cB) | .A.F.=c.F .dF.c.F | Add^c .d2(de) | fdcA (AG).G2 Hy |]
|: .g2(dg) .g2(ag) | fdde .f2(fe) | .g2(g^f) .g2(ag) | ^fdcA (AG).G2 \
|   gddg   .g2(ag) | fdde .f2(fg) |  abag     fgag   |  fdcA (AG)"D.C."G2 :|
